X: 40891
T: Tríd Na BhFásra Glas
R: jig
M: 6/8
K: Gmajor
"G" D2 G GAB|Bcd gfd|D2 G GAB|edB dBA|
"G" G2 D GAB|"Em" E2 G FGD|"F" g=fd cdA|1 cBc ABF:|2 cBc ABc||
|:"G" d2 f gaf|gAB GBc|d2 g/f/ dAB|GAB AFD|
"G" G2 D GAB|"Em" E2 G FGD|"F" g=fd cdA|cBc ABc:|
"G" d2 g gbg|age ged|d2 g g2 d|gbg fed|
"C" G2 D GAB|"Em" E2 d dBA|"F" g=fd cdA|cBc ABc|
"G" d2 g gbg|age ged|d2 g g2 d|gbg a3|
"C" g2 d c2 d|B2 G ABd|"F" g=fd cdA|cBc ABF||

